report_00007_2020-12-11T15:55:29.892Z/server-response-time/comparison/sorted/6_vs_7.svg

<svg width="640" height="500" xmlns="http://www.w3.org/2000/svg" xmlns:xlink="http://www.w3.org/1999/xlink"><path fill="#fff" d="M0 0h640v500H0z"/><defs><path id="d" stroke-width=".222" stroke="currentColor" d="M-1-1h2v2h-2z"/><path id="b" stroke-width=".222" stroke="currentColor" d="M0-1.33l-1.33 2h2.66z"/><path id="f" stroke-width=".222" stroke="currentColor" d="M0 1.33L1.265.411.782-1.067l-1.564-.009-.483 1.487z"/><use xlink:href="#b" id="c" stroke="currentColor" transform="rotate(180)"/><use xlink:href="#d" id="e" stroke="currentColor" transform="rotate(45)"/><circle id="a" stroke-width=".222" stroke="currentColor" cx="0" cy="0" r="1"/></defs><g fill="none" color="#000" stroke="currentColor"><path stroke="#000" d="M53.9 381.2h9m552.1 0h-9"/><text transform="translate(45.6 385.1)" stroke="none" fill="#000" font-family="Arial" font-size="12" text-anchor="end"><tspan>1.4</tspan></text></g><g fill="none" color="#000" stroke="currentColor"><path stroke="#000" d="M53.9 323h9m552.1 0h-9"/><text transform="translate(45.6 326.9)" stroke="none" fill="#000" font-family="Arial" font-size="12" text-anchor="end"><tspan>1.6</tspan></text></g><g fill="none" color="#000" stroke="currentColor"><path stroke="#000" d="M53.9 264.9h9m552.1 0h-9"/><text transform="translate(45.6 268.8)" stroke="none" fill="#000" font-family="Arial" font-size="12" text-anchor="end"><tspan>1.8</tspan></text></g><g fill="none" color="#000" stroke="currentColor"><path stroke="#000" d="M53.9 206.8h9m552.1 0h-9"/><text transform="translate(45.6 210.7)" stroke="none" fill="#000" font-family="Arial" font-size="12" text-anchor="end"><tspan>2</tspan></text></g><g fill="none" color="#000" stroke="currentColor"><path stroke="#000" d="M53.9 148.6h9m552.1 0h-9"/><text transform="translate(45.6 152.5)" stroke="none" fill="#000" font-family="Arial" font-size="12" text-anchor="end"><tspan>2.2</tspan></text></g><g fill="none" color="#000" stroke="currentColor"><path stroke="#000" d="M53.9 90.5h9m552.1 0h-9"/><text transform="translate(45.6 94.4)" stroke="none" fill="#000" font-family="Arial" font-size="12" text-anchor="end"><tspan>2.4</tspan></text></g><g fill="none" color="#000" stroke="currentColor"><path stroke="#000" d="M53.9 32.4h9m552.1 0h-9"/><text transform="translate(45.6 36.3)" stroke="none" fill="#000" font-family="Arial" font-size="12" text-anchor="end"><tspan>2.6</tspan></text></g><g fill="none" color="#000" stroke="currentColor"><path stroke="#000" d="M53.9 428v-9m0-400.9v9"/><text transform="translate(53.9 449.9)" stroke="none" fill="#000" font-family="Arial" font-size="12" text-anchor="middle"><tspan>0</tspan></text></g><g fill="none" color="#000" stroke="currentColor"><path stroke="#000" d="M110.6 428v-9m0-400.9v9"/><text transform="translate(110.6 449.9)" stroke="none" fill="#000" font-family="Arial" font-size="12" text-anchor="middle"><tspan>10</tspan></text></g><g fill="none" color="#000" stroke="currentColor"><path stroke="#000" d="M167.3 428v-9m0-400.9v9"/><text transform="translate(167.3 449.9)" stroke="none" fill="#000" font-family="Arial" font-size="12" text-anchor="middle"><tspan>20</tspan></text></g><g fill="none" color="#000" stroke="currentColor"><path stroke="#000" d="M223.9 428v-9m0-400.9v9"/><text transform="translate(223.9 449.9)" stroke="none" fill="#000" font-family="Arial" font-size="12" text-anchor="middle"><tspan>30</tspan></text></g><g fill="none" color="#000" stroke="currentColor"><path stroke="#000" d="M280.6 428v-9m0-400.9v9"/><text transform="translate(280.6 449.9)" stroke="none" fill="#000" font-family="Arial" font-size="12" text-anchor="middle"><tspan>40</tspan></text></g><g fill="none" color="#000" stroke="currentColor"><path stroke="#000" d="M337.3 428v-9m0-400.9v9"/><text transform="translate(337.3 449.9)" stroke="none" fill="#000" font-family="Arial" font-size="12" text-anchor="middle"><tspan>50</tspan></text></g><g fill="none" color="#000" stroke="currentColor"><path stroke="#000" d="M394 428v-9m0-400.9v9"/><text transform="translate(394 449.9)" stroke="none" fill="#000" font-family="Arial" font-size="12" text-anchor="middle"><tspan>60</tspan></text></g><g fill="none" color="#000" stroke="currentColor"><path stroke="#000" d="M450.6 428v-9m0-400.9v9"/><text transform="translate(450.6 449.9)" stroke="none" fill="#000" font-family="Arial" font-size="12" text-anchor="middle"><tspan>70</tspan></text></g><g fill="none" color="#000" stroke="currentColor"><path stroke="#000" d="M507.3 428v-9m0-400.9v9"/><text transform="translate(507.3 449.9)" stroke="none" fill="#000" font-family="Arial" font-size="12" text-anchor="middle"><tspan>80</tspan></text></g><g fill="none" color="#000" stroke="currentColor"><path stroke="#000" d="M564 428v-9m0-400.9v9"/><text transform="translate(564 449.9)" stroke="none" fill="#000" font-family="Arial" font-size="12" text-anchor="middle"><tspan>90</tspan></text></g><path stroke="#000" d="M53.9 18.1V428H615V18.1H53.9z" fill="none" color="#000"/><text transform="translate(433.7 467.9)" stroke="none" fill="#000" font-family="Arial" font-size="12" text-anchor="end" color="#000"><tspan>pages+cached+noexternal+nofonts</tspan></text><path stroke="#9400D3" d="M442 464h42.2M53.9 420.1l5.7-1.7 5.6-1.8 5.7-5.5h5.7l5.6-1.7 5.7-2.7h5.7l5.6-4.3 5.7-2.9 5.7-.9 5.6-.6 5.7-.3 5.7-.3 5.6-2.3 5.7-.9 5.7-1.1 5.7-.3 5.6-1.7 5.7-2.1 5.7-1.1h5.6l5.7-.3h11.3l5.7-3.5 5.7-.9 5.6-.3 5.7-1.7 5.7-2.6 5.6-4.1 5.7-.3 5.7-9.9 5.6-2 5.7-.6 5.7-.6 5.6-3.8 5.7-.5 5.7-3.2 5.6-.9 5.7-3.5 5.7-18.9 5.6-4.4 5.7-1.7 5.7-2 5.6-4.1 5.7-5.8 5.7-2.1 5.6-1.1 5.7-1.5 5.7-.5 5.7-.9 5.6-2.3 5.7-8.2 5.7-1.7 5.6-2.9h5.7l5.7-.9 5.6-1.2h5.7l5.7-.3 5.6-.3 5.7-4 5.7-1.5 5.6-2.9 5.7-2.6h5.7l5.6-4.9 5.7-.6h5.7l5.6-8.7 5.7-.9 5.7-2.6 5.6-.6 5.7-5.2 5.7-5.3 5.6-2.9h5.7l5.7-1.7 5.6-7 5.7-.6 5.7-.6 5.6-1.4 5.7-2.6 5.7-.3h5.7l5.6-18.3 5.7-1.8 5.7-1.1 5.6-3.5 5.7-.3 5.7-26.2 5.6-9 5.7-13.1 5.7-.8 5.6-8.2 5.7-.6 5.7-1.4 5.6-48.8L615 26" fill="none" color="#000"/><text transform="translate(433.7 485.9)" stroke="none" fill="#000" font-family="Arial" font-size="12" text-anchor="end" color="#000"><tspan>pages+cached+noexternal+nosvg</tspan></text><path stroke="#009E73" d="M442 482h42.2M53.9 402.4l5.7-5.8 5.6-2.6 5.7-1.5 5.7-2.6 5.6-.6 5.7-.3 5.7-.3 5.6-.8 5.7-2.1 5.7-8.4 5.6-3.8 5.7-6.1 5.7-10.2 5.6-7.5 5.7-14h5.7l5.7-2.3 5.6-4.6 5.7-6.2 5.7-1.1 5.6-1.2 5.7-1.1 5.7-.9 5.6-1.2 5.7-.6 5.7-.8 5.6-.3 5.7-.6h5.7l5.6-2.3 5.7-5.3 5.7-2.3 5.6-3.8 5.7-1.4 5.7-2.3 5.6-2.7 5.7-3.2 5.7-.5 5.6-1.8 5.7-2 5.7-.6 5.6-.3 5.7-1.4h5.7l5.6-.6 5.7-.3 5.7-3.2 5.6-2.3 5.7-.3 5.7-7.9 5.7-.3 5.6-.3 5.7-5.5 5.7-1.4h5.6l5.7-.6 5.7-2.9 5.6-.3 5.7-2 5.7-2.4 5.6-1.4 5.7-13.1 5.7-.3 5.6-1.7 5.7-.6 5.7-2.9 5.6-2.1 5.7-1.7 5.7-1.5 5.6-1.7 5.7-3.8 5.7-.6 5.6-1.1 5.7-2.3 5.7-8.8h11.3l5.7-1.1 5.6-3.5 5.7-11.9 5.7-.3h5.6l5.7-1.2 5.7-6.1 5.7-.3 5.6-.6 5.7-1.1 5.7-2.9 5.6-6.7 5.7-3.5 5.7-4.1 5.6-8.1 5.7-16.9 5.7-8.7 5.6-1.4 5.7-28.8 5.7-9 5.6-23.3 5.7-32" fill="none" color="#000"/><g fill="none" color="#000" stroke="currentColor"><path stroke="#000" d="M53.9 18.1V428H615V18.1H53.9z"/></g></svg>

<?xml version="1.0" encoding="utf-8"  standalone="no"?>
<svg 
 width="640" height="500"
 viewBox="0 0 640 500"
 xmlns="http://www.w3.org/2000/svg"
 xmlns:xlink="http://www.w3.org/1999/xlink"
>

<title>Gnuplot</title>
<desc>Produced by GNUPLOT 5.4 patchlevel 0 </desc>

<g id="gnuplot_canvas">

<rect x="0" y="0" width="640" height="500" fill="#ffffff"/>
<defs>

	<circle id='gpDot' r='0.5' stroke-width='0.5' stroke='currentColor'/>
	<path id='gpPt0' stroke-width='0.222' stroke='currentColor' d='M-1,0 h2 M0,-1 v2'/>
	<path id='gpPt1' stroke-width='0.222' stroke='currentColor' d='M-1,-1 L1,1 M1,-1 L-1,1'/>
	<path id='gpPt2' stroke-width='0.222' stroke='currentColor' d='M-1,0 L1,0 M0,-1 L0,1 M-1,-1 L1,1 M-1,1 L1,-1'/>
	<rect id='gpPt3' stroke-width='0.222' stroke='currentColor' x='-1' y='-1' width='2' height='2'/>
	<rect id='gpPt4' stroke-width='0.222' stroke='currentColor' fill='currentColor' x='-1' y='-1' width='2' height='2'/>
	<circle id='gpPt5' stroke-width='0.222' stroke='currentColor' cx='0' cy='0' r='1'/>
	<use xlink:href='#gpPt5' id='gpPt6' fill='currentColor' stroke='none'/>
	<path id='gpPt7' stroke-width='0.222' stroke='currentColor' d='M0,-1.33 L-1.33,0.67 L1.33,0.67 z'/>
	<use xlink:href='#gpPt7' id='gpPt8' fill='currentColor' stroke='none'/>
	<use xlink:href='#gpPt7' id='gpPt9' stroke='currentColor' transform='rotate(180)'/>
	<use xlink:href='#gpPt9' id='gpPt10' fill='currentColor' stroke='none'/>
	<use xlink:href='#gpPt3' id='gpPt11' stroke='currentColor' transform='rotate(45)'/>
	<use xlink:href='#gpPt11' id='gpPt12' fill='currentColor' stroke='none'/>
	<path id='gpPt13' stroke-width='0.222' stroke='currentColor' d='M0,1.330 L1.265,0.411 L0.782,-1.067 L-0.782,-1.076 L-1.265,0.411 z'/>
	<use xlink:href='#gpPt13' id='gpPt14' fill='currentColor' stroke='none'/>
	<filter id='textbox' filterUnits='objectBoundingBox' x='0' y='0' height='1' width='1'>
	  <feFlood flood-color='#FFFFFF' flood-opacity='1' result='bgnd'/>
	  <feComposite in='SourceGraphic' in2='bgnd' operator='atop'/>
	</filter>
	<filter id='greybox' filterUnits='objectBoundingBox' x='0' y='0' height='1' width='1'>
	  <feFlood flood-color='lightgrey' flood-opacity='1' result='grey'/>
	  <feComposite in='SourceGraphic' in2='grey' operator='atop'/>
	</filter>
</defs>
<g fill="none" color="#FFFFFF" stroke="black" stroke-width="1.00" stroke-linecap="butt" stroke-linejoin="miter">
</g>
<g fill="none" color="black" stroke="currentColor" stroke-width="1.00" stroke-linecap="butt" stroke-linejoin="miter">
	<path stroke='black'  d='M53.9,381.2 L62.9,381.2 M615.0,381.2 L606.0,381.2  '/>	<g transform="translate(45.6,385.1)" stroke="none" fill="black" font-family="Arial" font-size="12.00"  text-anchor="end">
		<text><tspan font-family="Arial" > 1.4</tspan></text>
	</g>
</g>
<g fill="none" color="black" stroke="currentColor" stroke-width="1.00" stroke-linecap="butt" stroke-linejoin="miter">
	<path stroke='black'  d='M53.9,323.0 L62.9,323.0 M615.0,323.0 L606.0,323.0  '/>	<g transform="translate(45.6,326.9)" stroke="none" fill="black" font-family="Arial" font-size="12.00"  text-anchor="end">
		<text><tspan font-family="Arial" > 1.6</tspan></text>
	</g>
</g>
<g fill="none" color="black" stroke="currentColor" stroke-width="1.00" stroke-linecap="butt" stroke-linejoin="miter">
	<path stroke='black'  d='M53.9,264.9 L62.9,264.9 M615.0,264.9 L606.0,264.9  '/>	<g transform="translate(45.6,268.8)" stroke="none" fill="black" font-family="Arial" font-size="12.00"  text-anchor="end">
		<text><tspan font-family="Arial" > 1.8</tspan></text>
	</g>
</g>
<g fill="none" color="black" stroke="currentColor" stroke-width="1.00" stroke-linecap="butt" stroke-linejoin="miter">
	<path stroke='black'  d='M53.9,206.8 L62.9,206.8 M615.0,206.8 L606.0,206.8  '/>	<g transform="translate(45.6,210.7)" stroke="none" fill="black" font-family="Arial" font-size="12.00"  text-anchor="end">
		<text><tspan font-family="Arial" > 2</tspan></text>
	</g>
</g>
<g fill="none" color="black" stroke="currentColor" stroke-width="1.00" stroke-linecap="butt" stroke-linejoin="miter">
	<path stroke='black'  d='M53.9,148.6 L62.9,148.6 M615.0,148.6 L606.0,148.6  '/>	<g transform="translate(45.6,152.5)" stroke="none" fill="black" font-family="Arial" font-size="12.00"  text-anchor="end">
		<text><tspan font-family="Arial" > 2.2</tspan></text>
	</g>
</g>
<g fill="none" color="black" stroke="currentColor" stroke-width="1.00" stroke-linecap="butt" stroke-linejoin="miter">
	<path stroke='black'  d='M53.9,90.5 L62.9,90.5 M615.0,90.5 L606.0,90.5  '/>	<g transform="translate(45.6,94.4)" stroke="none" fill="black" font-family="Arial" font-size="12.00"  text-anchor="end">
		<text><tspan font-family="Arial" > 2.4</tspan></text>
	</g>
</g>
<g fill="none" color="black" stroke="currentColor" stroke-width="1.00" stroke-linecap="butt" stroke-linejoin="miter">
	<path stroke='black'  d='M53.9,32.4 L62.9,32.4 M615.0,32.4 L606.0,32.4  '/>	<g transform="translate(45.6,36.3)" stroke="none" fill="black" font-family="Arial" font-size="12.00"  text-anchor="end">
		<text><tspan font-family="Arial" > 2.6</tspan></text>
	</g>
</g>
<g fill="none" color="black" stroke="currentColor" stroke-width="1.00" stroke-linecap="butt" stroke-linejoin="miter">
	<path stroke='black'  d='M53.9,428.0 L53.9,419.0 M53.9,18.1 L53.9,27.1  '/>	<g transform="translate(53.9,449.9)" stroke="none" fill="black" font-family="Arial" font-size="12.00"  text-anchor="middle">
		<text><tspan font-family="Arial" > 0</tspan></text>
	</g>
</g>
<g fill="none" color="black" stroke="currentColor" stroke-width="1.00" stroke-linecap="butt" stroke-linejoin="miter">
	<path stroke='black'  d='M110.6,428.0 L110.6,419.0 M110.6,18.1 L110.6,27.1  '/>	<g transform="translate(110.6,449.9)" stroke="none" fill="black" font-family="Arial" font-size="12.00"  text-anchor="middle">
		<text><tspan font-family="Arial" > 10</tspan></text>
	</g>
</g>
<g fill="none" color="black" stroke="currentColor" stroke-width="1.00" stroke-linecap="butt" stroke-linejoin="miter">
	<path stroke='black'  d='M167.3,428.0 L167.3,419.0 M167.3,18.1 L167.3,27.1  '/>	<g transform="translate(167.3,449.9)" stroke="none" fill="black" font-family="Arial" font-size="12.00"  text-anchor="middle">
		<text><tspan font-family="Arial" > 20</tspan></text>
	</g>
</g>
<g fill="none" color="black" stroke="currentColor" stroke-width="1.00" stroke-linecap="butt" stroke-linejoin="miter">
	<path stroke='black'  d='M223.9,428.0 L223.9,419.0 M223.9,18.1 L223.9,27.1  '/>	<g transform="translate(223.9,449.9)" stroke="none" fill="black" font-family="Arial" font-size="12.00"  text-anchor="middle">
		<text><tspan font-family="Arial" > 30</tspan></text>
	</g>
</g>
<g fill="none" color="black" stroke="currentColor" stroke-width="1.00" stroke-linecap="butt" stroke-linejoin="miter">
	<path stroke='black'  d='M280.6,428.0 L280.6,419.0 M280.6,18.1 L280.6,27.1  '/>	<g transform="translate(280.6,449.9)" stroke="none" fill="black" font-family="Arial" font-size="12.00"  text-anchor="middle">
		<text><tspan font-family="Arial" > 40</tspan></text>
	</g>
</g>
<g fill="none" color="black" stroke="currentColor" stroke-width="1.00" stroke-linecap="butt" stroke-linejoin="miter">
	<path stroke='black'  d='M337.3,428.0 L337.3,419.0 M337.3,18.1 L337.3,27.1  '/>	<g transform="translate(337.3,449.9)" stroke="none" fill="black" font-family="Arial" font-size="12.00"  text-anchor="middle">
		<text><tspan font-family="Arial" > 50</tspan></text>
	</g>
</g>
<g fill="none" color="black" stroke="currentColor" stroke-width="1.00" stroke-linecap="butt" stroke-linejoin="miter">
	<path stroke='black'  d='M394.0,428.0 L394.0,419.0 M394.0,18.1 L394.0,27.1  '/>	<g transform="translate(394.0,449.9)" stroke="none" fill="black" font-family="Arial" font-size="12.00"  text-anchor="middle">
		<text><tspan font-family="Arial" > 60</tspan></text>
	</g>
</g>
<g fill="none" color="black" stroke="currentColor" stroke-width="1.00" stroke-linecap="butt" stroke-linejoin="miter">
	<path stroke='black'  d='M450.6,428.0 L450.6,419.0 M450.6,18.1 L450.6,27.1  '/>	<g transform="translate(450.6,449.9)" stroke="none" fill="black" font-family="Arial" font-size="12.00"  text-anchor="middle">
		<text><tspan font-family="Arial" > 70</tspan></text>
	</g>
</g>
<g fill="none" color="black" stroke="currentColor" stroke-width="1.00" stroke-linecap="butt" stroke-linejoin="miter">
	<path stroke='black'  d='M507.3,428.0 L507.3,419.0 M507.3,18.1 L507.3,27.1  '/>	<g transform="translate(507.3,449.9)" stroke="none" fill="black" font-family="Arial" font-size="12.00"  text-anchor="middle">
		<text><tspan font-family="Arial" > 80</tspan></text>
	</g>
</g>
<g fill="none" color="black" stroke="currentColor" stroke-width="1.00" stroke-linecap="butt" stroke-linejoin="miter">
	<path stroke='black'  d='M564.0,428.0 L564.0,419.0 M564.0,18.1 L564.0,27.1  '/>	<g transform="translate(564.0,449.9)" stroke="none" fill="black" font-family="Arial" font-size="12.00"  text-anchor="middle">
		<text><tspan font-family="Arial" > 90</tspan></text>
	</g>
</g>
<g fill="none" color="black" stroke="currentColor" stroke-width="1.00" stroke-linecap="butt" stroke-linejoin="miter">
</g>
<g fill="none" color="black" stroke="currentColor" stroke-width="1.00" stroke-linecap="butt" stroke-linejoin="miter">
	<path stroke='black'  d='M53.9,18.1 L53.9,428.0 L615.0,428.0 L615.0,18.1 L53.9,18.1 Z  '/></g>
<g fill="none" color="black" stroke="currentColor" stroke-width="1.00" stroke-linecap="butt" stroke-linejoin="miter">
</g>
	<g id="gnuplot_plot_1" ><title>pages+cached+noexternal+nofonts</title>
<g fill="none" color="black" stroke="currentColor" stroke-width="1.00" stroke-linecap="butt" stroke-linejoin="miter">
	<g transform="translate(433.7,467.9)" stroke="none" fill="black" font-family="Arial" font-size="12.00"  text-anchor="end">
		<text><tspan font-family="Arial" >pages+cached+noexternal+nofonts</tspan></text>
	</g>
</g>
<g fill="none" color="black" stroke="currentColor" stroke-width="1.00" stroke-linecap="butt" stroke-linejoin="miter">
	<path stroke='rgb(148,   0, 211)'  d='M442.0,464.0 L484.2,464.0 M53.9,420.1 L59.6,418.4 L65.2,416.6 L70.9,411.1 L76.6,411.1 L82.2,409.4
		L87.9,406.7 L93.6,406.7 L99.2,402.4 L104.9,399.5 L110.6,398.6 L116.2,398.0 L121.9,397.7 L127.6,397.4
		L133.2,395.1 L138.9,394.2 L144.6,393.1 L150.3,392.8 L155.9,391.1 L161.6,389.0 L167.3,387.9 L172.9,387.9
		L178.6,387.6 L184.3,387.6 L189.9,387.6 L195.6,384.1 L201.3,383.2 L206.9,382.9 L212.6,381.2 L218.3,378.6
		L223.9,374.5 L229.6,374.2 L235.3,364.3 L240.9,362.3 L246.6,361.7 L252.3,361.1 L257.9,357.3 L263.6,356.8
		L269.3,353.6 L274.9,352.7 L280.6,349.2 L286.3,330.3 L291.9,325.9 L297.6,324.2 L303.3,322.2 L308.9,318.1
		L314.6,312.3 L320.3,310.2 L325.9,309.1 L331.6,307.6 L337.3,307.1 L343.0,306.2 L348.6,303.9 L354.3,295.7
		L360.0,294.0 L365.6,291.1 L371.3,291.1 L377.0,290.2 L382.6,289.0 L388.3,289.0 L394.0,288.7 L399.6,288.4
		L405.3,284.4 L411.0,282.9 L416.6,280.0 L422.3,277.4 L428.0,277.4 L433.6,272.5 L439.3,271.9 L445.0,271.9
		L450.6,263.2 L456.3,262.3 L462.0,259.7 L467.6,259.1 L473.3,253.9 L479.0,248.6 L484.6,245.7 L490.3,245.7
		L496.0,244.0 L501.6,237.0 L507.3,236.4 L513.0,235.8 L518.6,234.4 L524.3,231.8 L530.0,231.5 L535.7,231.5
		L541.3,213.2 L547.0,211.4 L552.7,210.3 L558.3,206.8 L564.0,206.5 L569.7,180.3 L575.3,171.3 L581.0,158.2
		L586.7,157.4 L592.3,149.2 L598.0,148.6 L603.7,147.2 L609.3,98.4 L615.0,26.0  '/></g>
	</g>
	<g id="gnuplot_plot_2" ><title>pages+cached+noexternal+nosvg</title>
<g fill="none" color="black" stroke="currentColor" stroke-width="1.00" stroke-linecap="butt" stroke-linejoin="miter">
	<g transform="translate(433.7,485.9)" stroke="none" fill="black" font-family="Arial" font-size="12.00"  text-anchor="end">
		<text><tspan font-family="Arial" >pages+cached+noexternal+nosvg</tspan></text>
	</g>
</g>
<g fill="none" color="black" stroke="currentColor" stroke-width="1.00" stroke-linecap="butt" stroke-linejoin="miter">
	<path stroke='rgb(  0, 158, 115)'  d='M442.0,482.0 L484.2,482.0 M53.9,402.4 L59.6,396.6 L65.2,394.0 L70.9,392.5 L76.6,389.9 L82.2,389.3
		L87.9,389.0 L93.6,388.7 L99.2,387.9 L104.9,385.8 L110.6,377.4 L116.2,373.6 L121.9,367.5 L127.6,357.3
		L133.2,349.8 L138.9,335.8 L144.6,335.8 L150.3,333.5 L155.9,328.9 L161.6,322.7 L167.3,321.6 L172.9,320.4
		L178.6,319.3 L184.3,318.4 L189.9,317.2 L195.6,316.6 L201.3,315.8 L206.9,315.5 L212.6,314.9 L218.3,314.9
		L223.9,312.6 L229.6,307.3 L235.3,305.0 L240.9,301.2 L246.6,299.8 L252.3,297.5 L257.9,294.8 L263.6,291.6
		L269.3,291.1 L274.9,289.3 L280.6,287.3 L286.3,286.7 L291.9,286.4 L297.6,285.0 L303.3,285.0 L308.9,284.4
		L314.6,284.1 L320.3,280.9 L325.9,278.6 L331.6,278.3 L337.3,270.4 L343.0,270.1 L348.6,269.8 L354.3,264.3
		L360.0,262.9 L365.6,262.9 L371.3,262.3 L377.0,259.4 L382.6,259.1 L388.3,257.1 L394.0,254.7 L399.6,253.3
		L405.3,240.2 L411.0,239.9 L416.6,238.2 L422.3,237.6 L428.0,234.7 L433.6,232.6 L439.3,230.9 L445.0,229.4
		L450.6,227.7 L456.3,223.9 L462.0,223.3 L467.6,222.2 L473.3,219.9 L479.0,211.1 L484.6,211.1 L490.3,211.1
		L496.0,210.0 L501.6,206.5 L507.3,194.6 L513.0,194.3 L518.6,194.3 L524.3,193.1 L530.0,187.0 L535.7,186.7
		L541.3,186.1 L547.0,185.0 L552.7,182.1 L558.3,175.4 L564.0,171.9 L569.7,167.8 L575.3,159.7 L581.0,142.8
		L586.7,134.1 L592.3,132.7 L598.0,103.9 L603.7,94.9 L609.3,71.6 L615.0,39.6  '/></g>
	</g>
<g fill="none" color="#FFFFFF" stroke="rgb(  0, 158, 115)" stroke-width="2.00" stroke-linecap="butt" stroke-linejoin="miter">
</g>
<g fill="none" color="black" stroke="currentColor" stroke-width="2.00" stroke-linecap="butt" stroke-linejoin="miter">
</g>
<g fill="none" color="black" stroke="black" stroke-width="1.00" stroke-linecap="butt" stroke-linejoin="miter">
</g>
<g fill="none" color="black" stroke="currentColor" stroke-width="1.00" stroke-linecap="butt" stroke-linejoin="miter">
	<path stroke='black'  d='M53.9,18.1 L53.9,428.0 L615.0,428.0 L615.0,18.1 L53.9,18.1 Z  '/></g>
<g fill="none" color="black" stroke="currentColor" stroke-width="1.00" stroke-linecap="butt" stroke-linejoin="miter">
</g>
</g>
</svg>
